X: 1
T: Erev Ba  [C]
O: Israel
Z: John Chambers <jc@trillian.mit.edu>
M: 4/4
L: 1/8
K: C
[| "C"G,2C2 B,2CE | "Dm"D8 | "G7"D2E2 FGE2 | "C"E8 |
w: 1.~Shuv ha-e-der no-her  bim-vo-ot* ha k'far
w: 2.~Shuv ha-ru-ach lo-chash beyn gid-rot* ga-nim
w: 3.~Shuv ha-ve-red cho-lam cha-lom-ot* ba-lat
   "C"G,2C2 B,2CE | "Dm"D8 | "G7"D2E2 FGE2 | "E7"E8 |
w: 1.~v'-o-le ha-a-vak mish-vi-le* a-far
w: 2.~uv-tsa-mer-ret ha-brosh kvar na-mot* yo-nim
w: 3.~u-for-chim ko-va-vim, ba-ma-rom* at at
   "F"F2A2 c3c | BcBA A4 | "Dm"D2F2 A3A | "G7"GAGF "E7"E4 |
w: 1.~v'-har-chek od tse-med in-ba-lim m'-la-ve et me-shech ha-tsla-lim
w: 2.~v'-har-chek al ke-tef ha-gva-ot od nosh-kot kar-na-yim ach-ron-ot
w: 3.~v'-har-chek ba-em-ek ha-a-fel me-la-ve ha-tan et bo he-leyl
   "Am"C4 A,4 | "Dm"D4 "G7"DEC2 | "C"C4- "F"C4- | "C"C8 |]
w: 1.~e-rev ba, e-*rev ba.
w: 2.~e-rev ba, e-*rev ba.
w: 3.~la-yil rad, la-*yil rad.
%
W: Again the flock flows to the edge of the city and dust rises from the paths.
W: Distant bells accompany the coming of shadows. Evening comes.
